style-guide/assets/xd-icons-H3-tiny.svg

<?xml version="1.0" encoding="UTF-8"?>
<svg width="12px" height="12px" viewBox="0 0 12 12" version="1.1" xmlns="http://www.w3.org/2000/svg" xmlns:xlink="http://www.w3.org/1999/xlink">
    <!-- Generator: Sketch 51.3 (57544) - http://www.bohemiancoding.com/sketch -->
    <title>H3</title>
    <desc>Created with Sketch.</desc>
    <defs></defs>
    <g id="H3" stroke="none" stroke-width="1" fill="none" fill-rule="evenodd">
        <path d="M5,0.0002 C5.553,0.0002 6,0.4482 6,1.0002 L6,11.0002 C6,11.5522 5.553,12.0002 5,12.0002 C4.447,12.0002 4,11.5522 4,11.0002 L4,7.0002 L2,7.0002 L2,11.0002 C2,11.5522 1.553,12.0002 1,12.0002 C0.447,12.0002 0,11.5522 0,11.0002 L0,1.0002 C0,0.4482 0.447,0.0002 1,0.0002 C1.553,0.0002 2,0.4482 2,1.0002 L2,5.0002 L4,5.0002 L4,1.0002 C4,0.4482 4.447,0.0002 5,0.0002 Z M11.9644,1.177 C11.9524,1.242 11.9544,1.308 11.9284,1.372 L10.4764,5 L11.0004,5 C11.5524,5 12.0004,5.448 12.0004,6 L12.0004,8 C12.0004,10.206 10.2064,12 8.0004,12 C7.4474,12 7.0004,11.552 7.0004,11 C7.0004,10.448 7.4474,10 8.0004,10 C9.1024,10 10.0004,9.103 10.0004,8 L10.0004,7 L9.0004,7 C8.6684,7 8.3584,6.835 8.1724,6.561 C7.9864,6.286 7.9484,5.937 8.0714,5.628 L9.5224,2 L8.0004,2 C7.4474,2 7.0004,1.552 7.0004,1 C7.0004,0.448 7.4474,0 8.0004,0 L11.0004,0 C11.0684,0 11.1274,0.026 11.1914,0.038 C11.2514,0.05 11.3124,0.048 11.3714,0.072 C11.3744,0.073 11.3764,0.075 11.3794,0.076 C11.4764,0.116 11.5584,0.179 11.6364,0.245 C11.6574,0.263 11.6854,0.273 11.7054,0.291 C11.7624,0.349 11.7984,0.422 11.8404,0.491 C11.8654,0.531 11.9014,0.565 11.9194,0.608 C11.9324,0.639 11.9304,0.675 11.9414,0.707 C11.9694,0.8 11.9974,0.893 11.9984,0.991 C11.9984,0.994 12.0004,0.997 12.0004,1 C12.0004,1.063 11.9754,1.117 11.9644,1.177 Z" id="Fill-1" fill="#000000"></path>
    </g>
</svg>

<svg viewBox="0 0 12 12" xmlns="http://www.w3.org/2000/svg">
  <path d="M5 0a1 1 0 0 1 1 1v10a1 1 0 1 1-2 0V7H2v4a1 1 0 1 1-2 0V1a1 1 0 1 1 2 0v4h2V1a1 1 0 0 1 1-1zm6.964 1.177c-.012.065-.01.131-.036.195L10.476 5H11a1 1 0 0 1 1 1v2c0 2.206-1.794 4-4 4a1 1 0 1 1 0-2c1.102 0 2-.897 2-2V7H9a1.001 1.001 0 0 1-.929-1.372L9.522 2H8a1 1 0 1 1 0-2h3c.068 0 .127.026.191.038.06.012.121.01.18.034l.008.004c.097.04.18.103.257.169.021.018.05.028.07.046.056.058.092.131.134.2.025.04.061.074.08.117.012.031.01.067.021.099.028.093.056.186.057.284L12 1c0 .063-.025.117-.036.177z"/>
</svg>
